!!!OTL: Der Bremberger:
!!!OTL-incipit: Ich habe gewacht ein Winterlange nacht,
!!!ARE: Europa, Mitteleuropa, Deutschland
!!!YOR: 1, S. 163
!!    1603 Handschrift (zwischen 1603 und 1608)
!!!SCT: Q0016
!!!YEM: Copyright 1995, estate of Helmut Schaffrath.
**kern	**text
*ICvox	*
!! Irregular meter.
*MX	*
*k[b-]	*
*d:	*
4r	.
4r	.
{4g	Jch
=1:	=1:
4g	ha-
4g	-be
4g	gewacht
2dd	.
4dd	ein
=2:	=2:
4g	Win-
4g	-terlan-
4a	-ge
2b-}	nacht,
{4b-	dar-
=3:	=3:
2cc	-ʒu
4a	hatt
2g	mich
4a	ein
=4:	=4:
2b-	ſchon
4dd	Jungfreulein
8ccL	.
8b-J	.
4a	.
4g	gebracht
=5:	=5:
2f}	.
{4a	mit
=6:	=6:
4cc	ih-
4cc	-ren
4a	ſchnewei-
2g	.
4b-	-ßen
=7:	=7:
2a	bru-
4g	.
2a}	-ſten,
{4g	daß
=8:	=8:
4f	muſ-
4e	-te
4d	dem
4f	Hel-
4f	-de
4g	ge-
=9:	=9:
2.a	-lu-
2g}	-ſten.
==	==
!!!AGN: Ballade, Eifersucht, Ehe, Hinrichtung, Tod
!! Kleinere Melodievarianten aus anderen Quellen abgedruckt.
!!!ONB: ESAC (Essen Associative Code) Database: BALLADE
!!!AMT: irregular
!!!AIN: vox
!!!EED: Helmut Schaffrath
!!!EEV: 1.0
!!!source: Deutsche Volkslieder mit ihren Melodien. Balladen. Herausgegeben vom Deutschen Volksliedarchiv. Erster Band Balladen. Berlin und Leipzig 1935.
!!!page: 163
!!!ENC: Anna Maria Matuszewska
!!!EEV: 2025/02/14
*-	*-
